poi/svg/1402.svg

<?xml version="1.0" encoding="UTF-8" standalone="no"?>
<svg
   xmlns:dc="http://purl.org/dc/elements/1.1/"
   xmlns:cc="http://creativecommons.org/ns#"
   xmlns:rdf="http://www.w3.org/1999/02/22-rdf-syntax-ns#"
   xmlns:svg="http://www.w3.org/2000/svg"
   xmlns="http://www.w3.org/2000/svg"
   xmlns:sodipodi="http://sodipodi.sourceforge.net/DTD/sodipodi-0.dtd"
   xmlns:inkscape="http://www.inkscape.org/namespaces/inkscape"
   inkscape:version="1.0 (4035a4fb49, 2020-05-01)"
   sodipodi:docname="1402.svg"
   id="svg20"
   version="1.2"
   viewBox="0 0 42.519639 42.519639"
   height="14.999999mm"
   width="14.999999mm">
  <metadata
     id="metadata24">
    <rdf:RDF>
      <cc:Work
         rdf:about="">
        <dc:format>image/svg+xml</dc:format>
        <dc:type
           rdf:resource="http://purl.org/dc/dcmitype/StillImage" />
        <dc:title>Qt SVG Document</dc:title>
      </cc:Work>
    </rdf:RDF>
  </metadata>
  <sodipodi:namedview
     inkscape:current-layer="svg20"
     inkscape:window-maximized="0"
     inkscape:window-y="0"
     inkscape:window-x="0"
     inkscape:cy="28.346482"
     inkscape:cx="28.346482"
     inkscape:zoom="5.8410537"
     showgrid="false"
     id="namedview22"
     inkscape:window-height="480"
     inkscape:window-width="1034"
     inkscape:pageshadow="2"
     inkscape:pageopacity="0"
     guidetolerance="10"
     gridtolerance="10"
     objecttolerance="10"
     borderopacity="1"
     bordercolor="#666666"
     pagecolor="#ffffff" />
  <title
     id="title2">Qt SVG Document</title>
  <desc
     id="desc4">Generated with Qt</desc>
  <defs
     id="defs6" />
  <g
     transform="translate(5.25984,5.25984)"
     id="g18"
     stroke-linejoin="bevel"
     stroke-linecap="square"
     fill-rule="evenodd"
     stroke-width="1"
     stroke="#000000"
     fill="none">
    <g
       id="g10"
       font-style="normal"
       font-weight="400"
       font-size="7.8px"
       font-family="'MS Shell Dlg 2'"
       stroke="none"
       fill-opacity="1"
       fill="#8a5aa5">
      <path
         id="path8"
         d="M 37.2598,16 C 37.2598,27.7415 27.7415,37.2598 16,37.2598 4.25851,37.2598 -5.25984,27.7415 -5.25984,16 -5.25984,4.25851 4.25851,-5.25984 16,-5.25984 27.7415,-5.25984 37.2598,4.25851 37.2598,16"
         fill-rule="evenodd"
         vector-effect="non-scaling-stroke" />
    </g>
    <g
       id="g14"
       font-style="normal"
       font-weight="400"
       font-size="7.8px"
       font-family="'MS Shell Dlg 2'"
       transform="translate(16,12.0315)"
       stroke="none"
       fill-opacity="0.94902"
       fill="#ffffff">
      <path
         id="path12"
         d="m -2.52832,3.45898 c 0.22396,-0.13997 0.49691,-0.25195 0.81885,-0.33593 0.13997,0 0.22396,-0.014 0.25195,-0.042 v 3.21241 c -0.05599,0 -0.09098,-0.007 -0.10498,-0.021 -0.014,-0.014 -0.04899,-0.021 -0.10498,-0.021 L -2.48633,5.87354 C -2.68229,5.76156 -2.88525,5.57259 -3.09521,5.30664 -3.23519,5.08268 -3.30518,4.83773 -3.30518,4.57178 c 0,-0.19597 0.06999,-0.40593 0.20997,-0.62989 0.15397,-0.20996 0.34293,-0.37093 0.56689,-0.48291 m 1.973632,-0.5039 H 0.600098 V 6.81836 L -0.554688,6.6084 V 2.95508 m 0,5.62695 1.154786,0.20996 v 3.77931 l -1.154786,0.042 V 8.58203 M 10.2793,10.5557 c 0,0.2239 0.0455,0.4724 0.1365,0.7453 0.091,0.273 0.1924,0.5284 0.3044,0.7664 0.056,0.14 0.119,0.2799 0.189,0.4199 0.07,0.14 0.1609,0.287 0.2729,0.4409 -0.4899,0.224 -0.9693,0.4374 -1.4382,0.6404 -0.46892,0.203 -0.92033,0.3884 -1.35425,0.5564 l -3.61133,1.5117 c -0.5459,0.224 -1.23527,0.364 -2.06811,0.4199 -0.83285,0.056 -1.69019,0.084 -2.572026,0.084 -0.657878,0.028 -1.308754,0.028 -1.952634,0 -0.64388,-0.028 -1.21078,-0.07 -1.70069,-0.126 l -1.67968,-0.1259 -2.33057,-0.378 c -0.62988,-0.1539 -1.25977,-0.3289 -1.88965,-0.5249 -0.62986,-0.1959 -1.09876,-0.4549 -1.40676,-0.7768 -0.2379,-0.168 -0.3499,-0.3674 -0.3359,-0.5984 0.014,-0.231 0.0665,-0.4759 0.1575,-0.7349 0.0909,-0.2589 0.1924,-0.5109 0.3044,-0.7558 0.112,-0.245 0.168,-0.4514 0.168,-0.6194 -0.056,-0.7419 0.0455,-1.55022 0.3044,-2.42506 0.25896,-0.87484 0.6159,-1.72868 1.07081,-2.56152 0.45492,-0.83285 0.98332,-1.6132 1.58521,-2.34107 0.60189,-0.72786 1.23177,-1.32275 1.88965,-1.78467 0.57389,-0.40592 1.22127,-0.90283 1.94213,-1.490719 0.72087,-0.587891 1.45223,-1.196777 2.1941,-1.82666 0,-0.167971 0.05599,-0.332441 0.16796,-0.493411 0.11198,-0.16097 0.24846,-0.31844 0.409429,-0.47241 0.16097,-0.15397 0.311442,-0.30444 0.451416,-0.45142 0.139974,-0.14697 0.244954,-0.29044 0.314941,-0.43042 v -0.08398 c 0,-1.03581 0.19246429,-1.89665 0.577393,-2.58252 0.384928,-0.68587 1.032311,-1.21777 1.942141,-1.5957 0.43392,-0.16797 1.0393,-0.15747 1.81616,0.03149 0.77685,0.18897 1.52222,0.45492 2.23608,0.79785 0.71387,0.34294 1.27727,0.70687 1.69019,1.0918 0.41292,0.38493 0.47941,0.68237 0.19946,0.89233 -0.05599,0.16797 -0.18196,0.25196 -0.37793,0.25196 -0.95182,0.13997 -1.64469,0.32194 -2.07861,0.5459 -0.46192,0.26595 -0.81185,0.54939 -1.04981,0.85034 -0.23795,0.30094 -0.4899,0.60538 -0.75586,0.91333 0.13998,0.29394 0.20997,0.57039 0.20997,0.829343 0,0.258952 -0.05599,0.500407 -0.16797,0.724365 0.29394,0.489909 0.71386,0.986817 1.25976,1.490722 0.5459,0.50391 1.25977,1.12679 2.1416,1.86865 0.46192,0.40593 0.86434,0.93783 1.20728,1.59571 0.34294,0.65787 0.63688,1.33675 0.88184,2.03662 0.24495,0.69987 0.43042,1.37874 0.55636,2.03662 0.126,0.65788 0.189,1.20373 0.189,1.63773 M 5.59717,11.4585 C 5.87712,11.0526 6.01709,10.6117 6.01709,10.1357 6.01709,9.67383 5.87712,9.25391 5.59717,8.87598 5.45719,8.68001 5.27873,8.51554 5.06177,8.38257 4.84481,8.24959 4.62435,8.12712 4.40039,8.01514 4.16243,7.90316 3.89998,7.79118 3.61304,7.6792 3.32609,7.56722 3.01465,7.44824 2.67871,7.32227 2.46875,7.26628 2.27279,7.21729 2.09082,7.17529 1.90885,7.1333 1.71289,7.08431 1.50293,7.02832 V 3.12305 C 1.82487,3.20703 2.05583,3.30501 2.1958,3.41699 2.60173,3.66895 2.80469,4.01188 2.80469,4.4458 v 0.31494 c 0.13997,0.028 0.25895,0.04199 0.35693,0.04199 0.09798,0 0.22396,0 0.37793,0 0.11198,0 0.22396,0 0.33594,0 0.11198,0 0.22396,-0.01399 0.33594,-0.04199 L 4.82031,4.57178 C 5.01628,4.48779 5.17725,4.38981 5.30322,4.27783 5.4152,4.16585 5.47119,4.02588 5.47119,3.85791 5.47119,3.50798 5.29622,3.22103 4.94629,2.99707 4.61035,2.78711 4.19743,2.61214 3.70752,2.47217 3.07764,2.33219 2.54574,2.26221 2.11182,2.26221 2.02783,2.23421 1.82487,2.22021 1.50293,2.22021 V 0.750488 H 0.600098 V 2.17822 L -0.554688,2.22021 V 0.750488 H -1.45752 V 2.26221 c -0.22396,0.05599 -0.43042,0.09098 -0.61938,0.10498 -0.18897,0.01399 -0.38143,0.04899 -0.5774,0.10498 -0.32194,0.05599 -0.61938,0.13297 -0.89233,0.23096 -0.27295,0.09798 -0.5214,0.20996 -0.74536,0.33593 -0.46192,0.22396 -0.83285,0.5249 -1.1128,0.90283 -0.26595,0.33594 -0.39892,0.74887 -0.39892,1.23877 0,0.5459 0.14697,0.95883 0.44092,1.23877 0.25195,0.34994 0.62288,0.65088 1.11279,0.90284 0.46191,0.29394 1.02181,0.5249 1.67969,0.69287 0.16797,0.05599 0.34643,0.10498 0.5354,0.14697 0.18896,0.04199 0.38143,0.09798 0.57739,0.16797 v 4.19922 c -0.48991,-0.084 -0.87484,-0.21 -1.15478,-0.3779 -0.43392,-0.266 -0.65088,-0.6859 -0.65088,-1.2598 v -0.2939 c -0.13998,0 -0.25896,-0.007 -0.35694,-0.021 -0.09798,-0.014 -0.22396,-0.021 -0.37793,-0.021 -0.11198,0 -0.22396,0.007 -0.33593,0.021 -0.11198,0.014 -0.24496,0.035 -0.39893,0.0629 -0.13997,0.028 -0.26595,0.056 -0.37793,0.084 -0.11198,0.028 -0.19596,0.056 -0.25195,0.084 -0.26595,0.182 -0.41293,0.287 -0.44092,0.315 -0.11198,0.1119 -0.16797,0.2519 -0.16797,0.4199 0,0.4059 0.18897,0.7348 0.56689,0.9868 0.19597,0.112 0.40943,0.2205 0.64039,0.3254 0.23095,0.105 0.48641,0.1855 0.76635,0.2415 0.51791,0.14 1.0778,0.2239 1.67969,0.2519 0.13997,0 0.28345,0.007 0.43042,0.021 0.14697,0.014 0.29045,0.021 0.43042,0.021 v 1.3018 h 0.902832 v -1.3018 l 1.154786,-0.042 v 1.3438 H 1.50293 v -1.4277 c 0.23796,-0.056 0.44792,-0.091 0.62988,-0.105 0.18197,-0.014 0.37793,-0.049 0.58789,-0.105 0.5739,-0.168 1.14779,-0.3849 1.72168,-0.6509 0.48991,-0.2519 0.87484,-0.5669 1.15479,-0.9448 M 2.59473,9.48486 c 0.25195,0.16797 0.46191,0.33594 0.62988,0.50391 0.15397,0.23793 0.23096,0.46893 0.23096,0.69283 0,0.266 -0.07699,0.5109 -0.23096,0.7349 -0.13997,0.168 -0.33594,0.3569 -0.58789,0.5669 l -0.90283,0.3779 c -0.028,0 -0.05599,0.007 -0.08399,0.021 -0.02799,0.014 -0.07698,0.021 -0.14697,0.021 V 9.04395 c 0.06999,0 0.11198,0.00699 0.12598,0.02099 0.01399,0.014 0.03499,0.021 0.06298,0.021 l 0.90284,0.39892"
         fill-rule="evenodd"
         vector-effect="none" />
    </g>
    <g
       id="g16"
       font-style="normal"
       font-weight="400"
       font-size="7.8px"
       font-family="'MS Shell Dlg 2'"
       stroke="none"
       fill-opacity="1"
       fill="#8a5aa5" />
  </g>
</svg>

<?xml version="1.0" encoding="UTF-8" standalone="no"?>
<svg width="11.2889mm" height="11.2889mm"
 viewBox="0 0 32 32"
 xmlns="http://www.w3.org/2000/svg" xmlns:xlink="http://www.w3.org/1999/xlink"  version="1.2" baseProfile="tiny">
<title>Qt SVG Document</title>
<desc>Generated with Qt</desc>
<defs>
</defs>
<g fill="none" stroke="black" stroke-width="1" fill-rule="evenodd" stroke-linecap="square" stroke-linejoin="bevel" >

<g fill="#8a5aa5" fill-opacity="1" stroke="none" transform="matrix(1,0,0,1,0,0)"
font-family="MS Shell Dlg 2" font-size="7.8" font-weight="400" font-style="normal" 
>
<path vector-effect="non-scaling-stroke" fill-rule="evenodd" d="M37.2598,16 C37.2598,27.7415 27.7415,37.2598 16,37.2598 C4.25851,37.2598 -5.25984,27.7415 -5.25984,16 C-5.25984,4.25851 4.25851,-5.25984 16,-5.25984 C27.7415,-5.25984 37.2598,4.25851 37.2598,16 "/>
</g>

<g fill="#ffffff" fill-opacity="0.94902" stroke="none" transform="matrix(1,0,0,1,16,12.0315)"
font-family="MS Shell Dlg 2" font-size="7.8" font-weight="400" font-style="normal" 
>
<path vector-effect="none" fill-rule="evenodd" d="M-2.52832,3.45898 C-2.30436,3.31901 -2.03141,3.20703 -1.70947,3.12305 C-1.5695,3.12305 -1.48551,3.10905 -1.45752,3.08105 L-1.45752,6.29346 C-1.51351,6.29346 -1.5485,6.28646 -1.5625,6.27246 C-1.5765,6.25846 -1.61149,6.25146 -1.66748,6.25146 L-2.48633,5.87354 C-2.68229,5.76156 -2.88525,5.57259 -3.09521,5.30664 C-3.23519,5.08268 -3.30518,4.83773 -3.30518,4.57178 C-3.30518,4.37581 -3.23519,4.16585 -3.09521,3.94189 C-2.94124,3.73193 -2.75228,3.57096 -2.52832,3.45898 M-0.554688,2.95508 L0.600098,2.95508 L0.600098,6.81836 L-0.554688,6.6084 L-0.554688,2.95508 M-0.554688,8.58203 L0.600098,8.79199 L0.600098,12.5713 L-0.554688,12.6133 L-0.554688,8.58203 M10.2793,10.5557 C10.2793,10.7796 10.3248,11.0281 10.4158,11.301 C10.5068,11.574 10.6082,11.8294 10.7202,12.0674 C10.7762,12.2074 10.8392,12.3473 10.9092,12.4873 C10.9792,12.6273 11.0701,12.7743 11.1821,12.9282 C10.6922,13.1522 10.2128,13.3656 9.7439,13.5686 C9.27498,13.7716 8.82357,13.957 8.38965,14.125 L4.77832,15.6367 C4.23242,15.8607 3.54305,16.0007 2.71021,16.0566 C1.87736,16.1126 1.02002,16.1406 0.138184,16.1406 C-0.519694,16.1686 -1.17057,16.1686 -1.81445,16.1406 C-2.45833,16.1126 -3.02523,16.0706 -3.51514,16.0146 L-5.19482,15.8887 L-7.52539,15.5107 C-8.15527,15.3568 -8.78516,15.1818 -9.41504,14.9858 C-10.0449,14.7899 -10.5138,14.5309 -10.8218,14.209 C-11.0597,14.041 -11.1717,13.8416 -11.1577,13.6106 C-11.1437,13.3796 -11.0912,13.1347 -11.0002,12.8757 C-10.9093,12.6168 -10.8078,12.3648 -10.6958,12.1199 C-10.5838,11.8749 -10.5278,11.6685 -10.5278,11.5005 C-10.5838,10.7586 -10.4823,9.95028 -10.2234,9.07544 C-9.96444,8.2006 -9.6075,7.34676 -9.15259,6.51392 C-8.69767,5.68107 -8.16927,4.90072 -7.56738,4.17285 C-6.96549,3.44499 -6.33561,2.8501 -5.67773,2.38818 C-5.10384,1.98226 -4.45646,1.48535 -3.7356,0.897461 C-3.01473,0.30957 -2.28337,-0.299316 -1.5415,-0.929199 C-1.5415,-1.09717 -1.48551,-1.26164 -1.37354,-1.42261 C-1.26156,-1.58358 -1.12508,-1.74105 -0.964111,-1.89502 C-0.803141,-2.04899 -0.652669,-2.19946 -0.512695,-2.34644 C-0.372721,-2.49341 -0.267741,-2.63688 -0.197754,-2.77686 L-0.197754,-2.86084 C-0.197754,-3.89665 -0.00528971,-4.75749 0.379639,-5.44336 C0.764567,-6.12923 1.41195,-6.66113 2.32178,-7.03906 C2.7557,-7.20703 3.36108,-7.19653 4.13794,-7.00757 C4.91479,-6.8186 5.66016,-6.55265 6.37402,-6.20972 C7.08789,-5.86678 7.65129,-5.50285 8.06421,-5.11792 C8.47713,-4.73299 8.54362,-4.43555 8.26367,-4.22559 C8.20768,-4.05762 8.08171,-3.97363 7.88574,-3.97363 C6.93392,-3.83366 6.24105,-3.65169 5.80713,-3.42773 C5.34521,-3.16178 4.99528,-2.87834 4.75732,-2.57739 C4.51937,-2.27645 4.26742,-1.97201 4.00146,-1.66406 C4.14144,-1.37012 4.21143,-1.09367 4.21143,-0.834717 C4.21143,-0.575765 4.15544,-0.33431 4.04346,-0.110352 C4.3374,0.379557 4.75732,0.876465 5.30322,1.38037 C5.84912,1.88428 6.56299,2.50716 7.44482,3.24902 C7.90674,3.65495 8.30916,4.18685 8.6521,4.84473 C8.99504,5.5026 9.28898,6.18148 9.53394,6.88135 C9.77889,7.58122 9.96436,8.26009 10.0903,8.91797 C10.2163,9.57585 10.2793,10.1217 10.2793,10.5557 M5.59717,11.4585 C5.87712,11.0526 6.01709,10.6117 6.01709,10.1357 C6.01709,9.67383 5.87712,9.25391 5.59717,8.87598 C5.45719,8.68001 5.27873,8.51554 5.06177,8.38257 C4.84481,8.24959 4.62435,8.12712 4.40039,8.01514 C4.16243,7.90316 3.89998,7.79118 3.61304,7.6792 C3.32609,7.56722 3.01465,7.44824 2.67871,7.32227 C2.46875,7.26628 2.27279,7.21729 2.09082,7.17529 C1.90885,7.1333 1.71289,7.08431 1.50293,7.02832 L1.50293,3.12305 C1.82487,3.20703 2.05583,3.30501 2.1958,3.41699 C2.60173,3.66895 2.80469,4.01188 2.80469,4.4458 L2.80469,4.76074 C2.94466,4.78874 3.06364,4.80273 3.16162,4.80273 C3.2596,4.80273 3.38558,4.80273 3.53955,4.80273 C3.65153,4.80273 3.76351,4.80273 3.87549,4.80273 C3.98747,4.80273 4.09945,4.78874 4.21143,4.76074 L4.82031,4.57178 C5.01628,4.48779 5.17725,4.38981 5.30322,4.27783 C5.4152,4.16585 5.47119,4.02588 5.47119,3.85791 C5.47119,3.50798 5.29622,3.22103 4.94629,2.99707 C4.61035,2.78711 4.19743,2.61214 3.70752,2.47217 C3.07764,2.33219 2.54574,2.26221 2.11182,2.26221 C2.02783,2.23421 1.82487,2.22021 1.50293,2.22021 L1.50293,0.750488 L0.600098,0.750488 L0.600098,2.17822 L-0.554688,2.22021 L-0.554688,0.750488 L-1.45752,0.750488 L-1.45752,2.26221 C-1.68148,2.3182 -1.88794,2.35319 -2.0769,2.36719 C-2.26587,2.38118 -2.45833,2.41618 -2.6543,2.47217 C-2.97624,2.52816 -3.27368,2.60514 -3.54663,2.70313 C-3.81958,2.80111 -4.06803,2.91309 -4.29199,3.03906 C-4.75391,3.26302 -5.12484,3.56396 -5.40479,3.94189 C-5.67074,4.27783 -5.80371,4.69076 -5.80371,5.18066 C-5.80371,5.72656 -5.65674,6.13949 -5.36279,6.41943 C-5.11084,6.76937 -4.73991,7.07031 -4.25,7.32227 C-3.78809,7.61621 -3.22819,7.84717 -2.57031,8.01514 C-2.40234,8.07113 -2.22388,8.12012 -2.03491,8.16211 C-1.84595,8.2041 -1.65348,8.26009 -1.45752,8.33008 L-1.45752,12.5293 C-1.94743,12.4453 -2.33236,12.3193 -2.6123,12.1514 C-3.04622,11.8854 -3.26318,11.4655 -3.26318,10.8916 L-3.26318,10.5977 C-3.40316,10.5977 -3.52214,10.5907 -3.62012,10.5767 C-3.7181,10.5627 -3.84408,10.5557 -3.99805,10.5557 C-4.11003,10.5557 -4.22201,10.5627 -4.33398,10.5767 C-4.44596,10.5907 -4.57894,10.6117 -4.73291,10.6396 C-4.87288,10.6676 -4.99886,10.6956 -5.11084,10.7236 C-5.22282,10.7516 -5.3068,10.7796 -5.36279,10.8076 C-5.62874,10.9896 -5.77572,11.0946 -5.80371,11.1226 C-5.91569,11.2345 -5.97168,11.3745 -5.97168,11.5425 C-5.97168,11.9484 -5.78271,12.2773 -5.40479,12.5293 C-5.20882,12.6413 -4.99536,12.7498 -4.7644,12.8547 C-4.53345,12.9597 -4.27799,13.0402 -3.99805,13.0962 C-3.48014,13.2362 -2.92025,13.3201 -2.31836,13.3481 C-2.17839,13.3481 -2.03491,13.3551 -1.88794,13.3691 C-1.74097,13.3831 -1.59749,13.3901 -1.45752,13.3901 L-1.45752,14.6919 L-0.554688,14.6919 L-0.554688,13.3901 L0.600098,13.3481 L0.600098,14.6919 L1.50293,14.6919 L1.50293,13.2642 C1.74089,13.2082 1.95085,13.1732 2.13281,13.1592 C2.31478,13.1452 2.51074,13.1102 2.7207,13.0542 C3.2946,12.8862 3.86849,12.6693 4.44238,12.4033 C4.93229,12.1514 5.31722,11.8364 5.59717,11.4585 M2.59473,9.48486 C2.84668,9.65283 3.05664,9.8208 3.22461,9.98877 C3.37858,10.2267 3.45557,10.4577 3.45557,10.6816 C3.45557,10.9476 3.37858,11.1925 3.22461,11.4165 C3.08464,11.5845 2.88867,11.7734 2.63672,11.9834 L1.73389,12.3613 C1.70589,12.3613 1.6779,12.3683 1.6499,12.3823 C1.62191,12.3963 1.57292,12.4033 1.50293,12.4033 L1.50293,9.04395 C1.57292,9.04395 1.61491,9.05094 1.62891,9.06494 C1.6429,9.07894 1.6639,9.08594 1.69189,9.08594 L2.59473,9.48486"/>
</g>

<g fill="#8a5aa5" fill-opacity="1" stroke="none" transform="matrix(1,0,0,1,0,0)"
font-family="MS Shell Dlg 2" font-size="7.8" font-weight="400" font-style="normal" 
>
</g>
</g>
</svg>
